; Auto Ambu v1.0
; Dimas - Florianopolis - Santa Catarina - Brazil
; Mudar a impressora para um respirador de emergencia
; G-Code generated by Simplify3D(R) Version 3.0.2
; mar 23, 2020 at 2:16:23 
; Settings Summary
;   processName,Process1
;   applyToModels,suporte_ambu
;   profileName,Minibot120-PLA (modified)
;   profileVersion,2016-08-01 10:49:24
;   baseProfile,Prusa Mendel
;   printMaterial,PLA
;   printQuality,Medium
;   printExtruders,
;   extruderName,E3D Lite6
;   extruderToolheadNumber,0
;   extruderDiameter,0.3
;   extruderAutoWidth,1
;   extruderWidth,0.36
;   extrusionMultiplier,1
;   extruderUseRetract,1
;   extruderRetractionDistance,3.5
;   extruderExtraRestartDistance,0
;   extruderRetractionZLift,0
;   extruderRetractionSpeed,3000
;   extruderUseCoasting,0
;   extruderCoastingDistance,0.2
;   extruderUseWipe,0
;   extruderWipeDistance,5
;   primaryExtruder,0
;   layerHeight,0.1
;   topSolidLayers,3
;   bottomSolidLayers,2
;   perimeterOutlines,2
;   printPerimetersInsideOut,1
;   startPointOption,1
;   startPointOriginX,0
;   startPointOriginY,0
;   startPointOriginZ,300
;   sequentialIslands,0
;   spiralVaseMode,0
;   firstLayerHeightPercentage,100
;   firstLayerWidthPercentage,80
;   firstLayerUnderspeed,0.6
;   useRaft,0
;   raftExtruder,0
;   raftLayers,1
;   raftOffset,0
;   raftSeparationDistance,0
;   raftInfill,40
;   disableRaftBaseLayers,1
;   useSkirt,1
;   skirtExtruder,0
;   skirtLayers,1
;   skirtOutlines,2
;   skirtOffset,6
;   usePrimePillar,0
;   primePillarExtruder,999
;   primePillarWidth,12
;   primePillarLocation,7
;   primePillarSpeedMultiplier,1
;   useOozeShield,0
;   oozeShieldExtruder,999
;   oozeShieldOffset,2
;   oozeShieldOutlines,1
;   oozeShieldSidewallShape,1
;   oozeShieldSidewallAngle,30
;   oozeShieldSpeedMultiplier,1
;   infillExtruder,0
;   internalInfillPattern,Fast Honeycomb
;   externalInfillPattern,Rectilinear
;   infillPercentage,5
;   outlineOverlapPercentage,25
;   infillExtrusionWidthPercentage,100
;   minInfillLength,5
;   infillLayerInterval,1
;   infillAngles,0
;   overlapInfillAngles,0
;   generateSupport,1
;   supportExtruder,0
;   supportInfillPercentage,30
;   supportExtraInflation,0
;   denseSupportLayers,0
;   denseSupportInfillPercentage,70
;   supportLayerInterval,1
;   supportHorizontalPartOffset,0.3
;   supportUpperSeparationLayers,1
;   supportLowerSeparationLayers,1
;   supportType,1
;   supportGridSpacing,2.5
;   maxOverhangAngle,55
;   supportAngles,0
;   temperatureName,Primary Extruder
;   temperatureNumber,0
;   temperatureSetpointCount,2
;   temperatureSetpointLayers,1,2
;   temperatureSetpointTemperatures,205,200
;   temperatureStabilizeAtStartup,0
;   temperatureHeatedBed,0
;   temperatureRelayBetweenLayers,0
;   temperatureRelayBetweenLoops,0
;   fanLayers,1
;   fanSpeeds,0
;   blipFanToFullPower,1
;   adjustSpeedForCooling,1
;   minSpeedLayerTime,10
;   minCoolingSpeedSlowdown,20
;   increaseFanForCooling,0
;   minFanLayerTime,45
;   maxCoolingFanSpeed,100
;   increaseFanForBridging,0
;   bridgingFanSpeed,100
;   use5D,1
;   relativeEdistances,0
;   allowEaxisZeroing,1
;   independentExtruderAxes,0
;   includeM10123,0
;   stickySupport,1
;   applyToolheadOffsets,0
;   gcodeXoffset,0
;   gcodeYoffset,0
;   gcodeZoffset,0
;   overrideMachineDefinition,1
;   machineTypeOverride,0
;   strokeXoverride,120
;   strokeYoverride,124
;   strokeZoverride,150
;   originOffsetXoverride,0
;   originOffsetYoverride,0
;   originOffsetZoverride,0
;   homeXdirOverride,-1
;   homeYdirOverride,-1
;   homeZdirOverride,-1
;   flipXoverride,1
;   flipYoverride,-1
;   flipZoverride,1
;   toolheadOffsets,0,0|0,0|0,0|0,0|0,0|0,0
;   overrideFirmwareConfiguration,1
;   firmwareTypeOverride,RepRap (Marlin/Repetier/Sprinter)
;   GPXconfigOverride,r2
;   baudRateOverride,250000
;   overridePrinterModels,1
;   printerModelsOverride
;   startingGcode,G21                   ; metric is good!,G90                   ; absolute positioning,T0                      ; select new extruder,G92 E0               ; zero the extruded length,G1 E65.0 F900   ; extruder dwell,G92 E0               ; zero the extruded length,G28                    ; go home,G1 Z0.2 F300     ; lift Z,G1 X30.0 Y30.0 F9000.0   ; fast  move,G92 E0              ; zero the extruded length,G92 E0              ; zero the extruded length
;   layerChangeGcode,
;   retractionGcode,
;   toolChangeGcode,
;   endingGcode,G1 X0.0 Y110.0 F9000.0,G92 E0                    ; zero the extruded length,G1 E-60.0 F2500    ; retira o filamento do bico,G92 E0                    ; zero the extruded length,G92 Z0,G1 Z1.0 F1000.0,M104 S200.0,M104 S0.0               ; turn off extruder,M84                         ; disable motors,M107                       ; Fan off,M81
;   createX3G,0
;   celebration,0
;   celebrationSong,Random Song
;   createMB5G,0
;   postProcessing,
;   defaultSpeed,2700
;   outlineUnderspeed,0.7
;   solidInfillUnderspeed,0.8
;   supportUnderspeed,0.8
;   rapidXYspeed,8400
;   rapidZspeed,480
;   minBridgingArea,50
;   bridgingExtraInflation,0
;   bridgingExtrusionMultiplier,1
;   bridgingSpeedMultiplier,1
;   filamentDiameter,1.75
;   filamentPricePerKg,150
;   filamentDensity,1.25
;   useMinPrintHeight,0
;   minPrintHeight,0
;   useMaxPrintHeight,0
;   maxPrintHeight,0
;   useDiaphragm,0
;   diaphragmLayerInterval,20
;   robustSlicing,1
;   mergeAllIntoSolid,0
;   onlyRetractWhenCrossingOutline,1
;   retractBetweenLayers,1
;   useRetractionMinTravel,0
;   retractionMinTravel,3
;   retractWhileWiping,0
;   onlyWipeOutlines,1
;   avoidCrossingOutline,0
;   maxMovementDetourFactor,3
;   toolChangeRetractionDistance,12
;   toolChangeExtraRestartDistance,-0.5
;   toolChangeRetractionSpeed,600
;   allowThinWallGapFill,1
;   thinWallAllowedOverlapPercentage,10
;   horizontalSizeCompensation,0
G90   ; set to absolute positioning , faz referencia a posicao zero da maquina
M82 ; set extruder to absolute mode


G21                   ; set units to millimeters , muda as unidades para milimetro
G90                   ; absolute positioning
T0                      ; select new extruder
G92 E0               ; zero the extruded length
G1 E65.0 F900   ; extruder dwell
G92 E0               ; zero the extruded length
G28                    ; go home
G1 Z0.2 F300     ; lift Z
G1 X30.0 Y30.0 F9000.0   ; fast  move
G92 E0              ; zero the extruded length
G92 E0              ; zero the extruded length
G92 E0
G1 E-3.5000 F3000
G1 Z0.100 F480

M104 S0.0               ; turn off extruder
M107                       ; Fan off



;hacking
G1 X60.000 Y60.000 F500
G1 Z0.500 F500  ; vai para o ponto inicial
G1 Z120.000 F500  ; vai para o ponto final
G1 Z0.500 F500  ; vai para o ponto inicial
G1 Z120.000 F500  ; vai para o ponto final
G1 Z0.500 F500  ; vai para o ponto inicial
G1 Z120.000 F500  ; vai para o ponto final
G1 Z0.500 F500  ; vai para o ponto inicial
G1 Z120.000 F500  ; vai para o ponto final
G1 Z0.500 F500  ; vai para o ponto inicial
G1 Z120.000 F500  ; vai para o ponto final
G1 Z0.500 F500  ; vai para o ponto inicial
G1 Z120.000 F500  ; vai para o ponto final
G1 Z0.500 F500  ; vai para o ponto inicial
G1 Z120.000 F500  ; vai para o ponto final
G1 Z0.500 F500  ; vai para o ponto inicial
G1 Z120.000 F500  ; vai para o ponto final
G1 Z0.500 F500  ; vai para o ponto inicial
G1 Z120.000 F500  ; vai para o ponto final



